.local/share/icons/Gruvbox-Plus-Dark/mimetypes/scalable/text-x-c.svg

<svg width="256" height="256" viewBox="0 0 256 256" fill="none" xmlns="http://www.w3.org/2000/svg">
<g opacity="0.4" filter="url(#filter0_f)">
<path d="M55.0839 15.5636H155.608L216.009 75.7129L216.011 224.609C216.011 233.52 208.749 240.737 199.838 240.737H55.0838C46.1734 240.737 39 233.564 39 224.654V31.6474C39 22.737 46.1734 15.5636 55.0838 15.5636H55.0839Z" fill="#282828"/>
</g>
<path d="M55.0839 15H155.608L216.009 75.1493L216.011 224.045C216.011 232.956 208.749 240.174 199.838 240.174H55.0838C46.1734 240.174 39 233 39 224.09V31.0838C39 22.1734 46.1734 15 55.0838 15H55.0839Z" fill="#ebdbb2"/>
<path fill-rule="evenodd" clip-rule="evenodd" d="M155.609 22.9787H55.0839C50.58 22.9787 46.9787 26.5799 46.9787 31.0838V224.09C46.9787 228.594 50.5799 232.195 55.0838 232.195H199.838C204.371 232.195 208.032 228.521 208.032 224.046V75.1493L155.609 22.9787ZM155.608 15H55.0839C46.1735 15 39 22.1734 39 31.0838V224.09C39 233 46.1734 240.174 55.0838 240.174H199.838C208.749 240.174 216.011 232.956 216.011 224.045L216.009 75.1493L155.608 15Z" fill="url(#paint0_linear)"/>
<path opacity="0.25" d="M155.608 17V61.2306C155.608 70.141 162.867 77.1605 171.777 77.1605L216.009 77.1493V75.1493L155.608 17Z" fill="#282828"/>
<path d="M155.608 15V59.2306C155.608 68.141 162.867 75.1605 171.777 75.1605L216.009 75.1493L155.608 15Z" fill="url(#paint1_linear)"/>
<path d="M131.864 188C152.972 188 165.936 176.199 173.582 159.247L152.972 151.435C147.654 160.244 141.338 166.393 131.864 166.393C113.914 166.393 106.269 145.95 106.269 128C106.269 110.881 112.418 89.6066 131.864 89.6066C142.003 89.6066 147.488 94.5928 153.305 103.402L173.416 94.2604C168.097 81.1302 154.136 68 131.864 68C95.7978 68 83 101.407 83 128C83 156.753 95.4654 188 131.864 188Z" fill="url(#paint2_linear)"/>
<defs>
<filter id="filter0_f" x="23.8778" y="0.441412" width="207.255" height="255.418" filterUnits="userSpaceOnUse" color-interpolation-filters="sRGB">
<feFlood flood-opacity="0" result="BackgroundImageFix"/>
<feBlend mode="normal" in="SourceGraphic" in2="BackgroundImageFix" result="shape"/>
<feGaussianBlur stdDeviation="7.5611" result="effect1_foregroundBlur"/>
</filter>
<linearGradient id="paint0_linear" x1="127.506" y1="15" x2="127.506" y2="240.174" gradientUnits="userSpaceOnUse">
<stop stop-color="#83a598"/>
<stop offset="1" stop-color="#076678"/>
</linearGradient>
<linearGradient id="paint1_linear" x1="185.808" y1="15" x2="185.808" y2="75.1605" gradientUnits="userSpaceOnUse">
<stop stop-color="#83a598"/>
<stop offset="1" stop-color="#076678"/>
</linearGradient>
<linearGradient id="paint2_linear" x1="128.291" y1="68" x2="128.291" y2="188" gradientUnits="userSpaceOnUse">
<stop stop-color="#83a598"/>
<stop offset="1" stop-color="#076678"/>
</linearGradient>
</defs>
</svg>

<svg width="256" height="256" fill="none" version="1.1" viewBox="0 0 256 256" xmlns="http://www.w3.org/2000/svg">
  <path d="m55.08 15h100.5l60.4 60.15 2e-3 148.9c0 8.911-7.262 16.13-16.17 16.13h-144.8c-8.91 0-16.08-7.174-16.08-16.08v-193c0-8.91 7.173-16.08 16.08-16.08h1e-4z" fill="#ebdbb2"/>
  <path d="m155.6 22.98h-100.5c-4.504 0-8.105 3.601-8.105 8.105v193c0 4.504 3.601 8.105 8.105 8.105h144.8c4.533 0 8.194-3.674 8.194-8.149v-148.9l-52.42-52.17zm-1e-3 -7.979h-100.5c-8.91 0-16.08 7.173-16.08 16.08v193c0 8.91 7.173 16.08 16.08 16.08h144.8c8.911 0 16.17-7.218 16.17-16.13l-2e-3 -148.9-60.4-60.15z" clip-rule="evenodd" fill="url(#paint0_linear)" fill-rule="evenodd"/>
  <path d="m155.6 17v44.23c0 8.91 7.259 15.93 16.17 15.93l44.23-0.0112v-2l-60.4-58.15z" fill="#282828" opacity=".25"/>
  <path d="m155.6 15v44.23c0 8.91 7.259 15.93 16.17 15.93l44.23-0.0112-60.4-60.15z" fill="url(#paint1_linear)"/>
  <path d="m131.9 188c21.11 0 34.07-11.8 41.72-28.75l-20.61-7.812c-5.318 8.809-11.63 14.96-21.11 14.96-17.95 0-25.6-20.44-25.6-38.39 0-17.12 6.149-38.39 25.6-38.39 10.14 0 15.62 4.986 21.44 13.8l20.11-9.142c-5.319-13.13-19.28-26.26-41.55-26.26-36.07 0-48.86 33.41-48.86 60 0 28.75 12.47 60 48.86 60z" fill="url(#paint2_linear)"/>
  <defs>
    <linearGradient id="paint0_linear" x1="127.5" x2="127.5" y1="15" y2="240.2" gradientUnits="userSpaceOnUse">
      <stop stop-color="#83a598" offset="0"/>
      <stop stop-color="#076678" offset="1"/>
    </linearGradient>
    <linearGradient id="paint1_linear" x1="185.8" x2="185.8" y1="15" y2="75.16" gradientUnits="userSpaceOnUse">
      <stop stop-color="#83a598" offset="0"/>
      <stop stop-color="#076678" offset="1"/>
    </linearGradient>
    <linearGradient id="paint2_linear" x1="128.3" x2="128.3" y1="68" y2="188" gradientUnits="userSpaceOnUse">
      <stop stop-color="#83a598" offset="0"/>
      <stop stop-color="#076678" offset="1"/>
    </linearGradient>
  </defs>
</svg>
